X: 82
M:4/4
L:1/8
K:G
ga|bggg dggg|bggg gfgb|afff dfff|afff fefa|
bggb affa|gddg fdcf|gbag fdcA|BcBA G2||

